src/assets/icons/blockchain-block.svg

<svg width="16" height="16" viewBox="0 0 16 16" fill="none" xmlns="http://www.w3.org/2000/svg">
<g clip-path="url(#clip0_13264_37855)">
<path fill-rule="evenodd" clip-rule="evenodd" d="M7.87121 0.0459552C7.84592 0.050278 7.7797 0.062897 7.72405 0.0740442C7.59641 0.0995762 0.890445 2.67504 0.678831 2.77979C0.389112 2.92324 0.167492 3.19127 0.0506293 3.53957L0.00741977 3.66834L0.00212202 7.84397C-0.00326767 12.1011 -0.00174087 12.2108 0.0652163 12.4127C0.173654 12.7398 0.424044 13.0425 0.710599 13.1929C0.77912 13.2289 2.33345 13.835 4.16465 14.5399C5.99586 15.2448 7.56861 15.8512 7.65967 15.8875C7.80885 15.9469 7.84249 15.9534 7.99997 15.9534C8.15914 15.9534 8.1903 15.9472 8.34947 15.8838C8.44559 15.8455 10.0183 15.239 11.8445 14.5361C13.6706 13.8331 15.2227 13.2277 15.2935 13.1906C15.5287 13.0677 15.791 12.7762 15.8925 12.5251C15.9988 12.2621 15.9911 12.5973 15.9972 8.00952C16.0035 3.27114 16.0141 3.64283 15.8629 3.33723C15.7288 3.06613 15.5007 2.83044 15.2567 2.71078C15.1074 2.63753 8.41829 0.106014 8.29381 0.0756261C8.19882 0.0524302 7.93984 0.0342561 7.87121 0.0459552ZM5.52979 2.62489C4.08496 3.18218 3.07871 3.57969 3.09282 3.58759C3.10603 3.59498 4.21531 4.02397 5.55791 4.54088L7.99898 5.48074L10.469 4.53082C11.8275 4.00837 12.9454 3.57508 12.9533 3.56796C12.9637 3.55863 8.14544 1.71961 8.00917 1.68087C7.99905 1.678 6.88333 2.10281 5.52979 2.62489ZM1.62151 8.29674L1.62616 11.8349L4.40378 12.9043L7.1814 13.9737L7.18606 10.4407C7.1886 8.49761 7.18446 6.90244 7.17686 6.89595C7.16244 6.88365 1.70572 4.78215 1.6491 4.76708C1.61846 4.75893 1.6171 4.93274 1.62151 8.29674ZM11.5778 5.82912L8.81854 6.89284L8.81389 10.4352C8.81019 13.2669 8.81387 13.9757 8.83228 13.9685C8.84496 13.9636 10.097 13.4814 11.6146 12.897L14.3738 11.8345L14.3784 8.29865C14.3821 5.47541 14.3784 4.76309 14.36 4.76412C14.3474 4.76482 13.0953 5.24408 11.5778 5.82912Z" fill="currentColor"/>
</g>
<defs>
<clipPath id="clip0_13264_37855">
<rect width="16" height="16" fill="white"/>
</clipPath>
</defs>
</svg>

<svg xmlns="http://www.w3.org/2000/svg" width="16" height="16" fill="none">
  <g clip-path="url(#a)">
    <path fill="currentColor" fill-rule="evenodd" d="M7.871.046a7.22 7.22 0 0 0-.147.028C7.596.1.89 2.675.68 2.78c-.29.143-.512.411-.628.76l-.044.128-.005 4.176c-.005 4.257-.004 4.367.063 4.569.109.327.359.63.646.78.068.036 1.622.642 3.454 1.347 1.83.705 3.404 1.311 3.495 1.348a.68.68 0 0 0 .34.065c.16 0 .19-.006.35-.07.096-.037 1.668-.644 3.495-1.347a222.353 222.353 0 0 0 3.448-1.345 1.48 1.48 0 0 0 .6-.666c.106-.263.098.072.104-4.515.006-4.739.017-4.367-.134-4.673a1.408 1.408 0 0 0-.606-.626C15.107 2.638 8.418.106 8.294.076a1.816 1.816 0 0 0-.423-.03ZM5.53 2.625c-1.445.557-2.451.955-2.437.963.013.007 1.122.436 2.465.953l2.441.94 2.47-.95c1.359-.523 2.476-.956 2.484-.963.01-.01-4.808-1.848-4.944-1.887-.01-.003-1.126.422-2.48.944ZM1.622 8.297l.004 3.538 2.778 1.07 2.777 1.069.005-3.533a229.81 229.81 0 0 0-.01-3.545A929.609 929.609 0 0 0 1.65 4.767c-.03-.008-.032.166-.027 3.53Zm9.956-2.468-2.76 1.064-.004 3.542c-.004 2.832 0 3.54.018 3.534l2.783-1.072 2.759-1.063.004-3.535c.004-2.824 0-3.536-.018-3.535-.013 0-1.265.48-2.782 1.065Z" clip-rule="evenodd"/>
  </g>
  <defs>
    <clipPath id="a">
      <path fill="#fff" d="M0 0h16v16H0z"/>
    </clipPath>
  </defs>
</svg>
